public/theme/icons/inactive-molluscs.svg

<svg width="33" height="34" viewBox="0 0 33 34" fill="none" xmlns="http://www.w3.org/2000/svg">
<circle cx="15" cy="15" r="15" fill="#E1E1E1"/>
<path fill-rule="evenodd" clip-rule="evenodd" d="M29.6258 18.3445C29.8707 17.2691 30 16.1496 30 15C30 6.71573 23.2843 0 15 0C6.71573 0 0 6.71573 0 15C0 23.2843 6.71573 30 15 30C16.5882 30 18.1188 29.7532 19.5555 29.2957L11.3877 21.1279L22.3122 11.031L22.3181 11.0368L29.6258 18.3445Z" fill="#E1E1E1"/>
<g filter="url(#filter0_d_105_29949)">
<path d="M7.23582 12.1254C7.09704 11.9442 7.09824 11.6903 7.24619 11.5164C11.2366 6.82779 18.7634 6.82801 22.7538 11.5162C22.9017 11.69 22.903 11.9439 22.7642 12.1251L17.7304 18.6992C17.5941 18.8771 17.5929 19.1239 17.7273 19.3031L18.6405 20.5207C18.8277 20.7703 18.7429 21.1278 18.4493 21.2333C16.531 21.9222 13.469 21.9222 11.5507 21.2333C11.2571 21.1278 11.1723 20.7703 11.3595 20.5207L12.2726 19.3031C12.4071 19.1239 12.4059 18.8771 12.2696 18.6992L7.23582 12.1254Z" fill="white"/>
</g>
<defs>
<filter id="filter0_d_105_29949" x="3.1333" y="6" width="23.7334" height="21.75" filterUnits="userSpaceOnUse" color-interpolation-filters="sRGB">
<feFlood flood-opacity="0" result="BackgroundImageFix"/>
<feColorMatrix in="SourceAlpha" type="matrix" values="0 0 0 0 0 0 0 0 0 0 0 0 0 0 0 0 0 0 127 0" result="hardAlpha"/>
<feOffset dy="2"/>
<feGaussianBlur stdDeviation="2"/>
<feComposite in2="hardAlpha" operator="out"/>
<feColorMatrix type="matrix" values="0 0 0 0 0 0 0 0 0 0 0 0 0 0 0 0 0 0 0.1 0"/>
<feBlend mode="normal" in2="BackgroundImageFix" result="effect1_dropShadow_105_29949"/>
<feBlend mode="normal" in="SourceGraphic" in2="effect1_dropShadow_105_29949" result="shape"/>
</filter>
</defs>
</svg>

<svg xmlns="http://www.w3.org/2000/svg" width="33" height="34" fill="none"><circle cx="15" cy="15" r="15" fill="#E1E1E1"/><path fill="#E1E1E1" fill-rule="evenodd" d="M29.626 18.345C29.87 17.269 30 16.15 30 15c0-8.284-6.716-15-15-15S0 6.716 0 15s6.716 15 15 15a15 15 0 0 0 4.555-.704l-8.167-8.168L22.312 11.03l.006.006z" clip-rule="evenodd"/><g filter="url(#a)"><path fill="#fff" d="M7.236 12.125a.485.485 0 0 1 .01-.609c3.99-4.688 11.517-4.688 15.508 0 .148.174.149.428.01.61l-5.034 6.573a.5.5 0 0 0-.003.604l.913 1.218c.188.25.103.607-.19.712-1.919.69-4.981.69-6.9 0-.293-.105-.378-.463-.19-.712l.913-1.218a.5.5 0 0 0-.003-.604z"/></g><defs><filter id="a" width="23.733" height="21.75" x="3.133" y="6" color-interpolation-filters="sRGB" filterUnits="userSpaceOnUse"><feFlood flood-opacity="0" result="BackgroundImageFix"/><feColorMatrix in="SourceAlpha" result="hardAlpha" values="0 0 0 0 0 0 0 0 0 0 0 0 0 0 0 0 0 0 127 0"/><feOffset dy="2"/><feGaussianBlur stdDeviation="2"/><feComposite in2="hardAlpha" operator="out"/><feColorMatrix values="0 0 0 0 0 0 0 0 0 0 0 0 0 0 0 0 0 0 0.1 0"/><feBlend in2="BackgroundImageFix" result="effect1_dropShadow_105_29949"/><feBlend in="SourceGraphic" in2="effect1_dropShadow_105_29949" result="shape"/></filter></defs></svg>
